dist/img/icon-card-cooperation-2.svg

<svg width="101" height="100" viewBox="0 0 101 100" fill="none" xmlns="http://www.w3.org/2000/svg">
<circle cx="50.5" cy="50" r="44" fill="white"/>
<path d="M41.5742 60V55.852L49.4962 49.358C51.0602 48.066 52.1369 47.0347 52.7262 46.264C53.3155 45.4707 53.6102 44.598 53.6102 43.646C53.6102 42.6713 53.3155 41.912 52.7262 41.368C52.1369 40.824 51.3662 40.552 50.4142 40.552C49.5302 40.552 48.7255 40.8013 48.0002 41.3C47.2975 41.776 46.4815 42.592 45.5522 43.748L41.8802 40.79C43.1269 39.09 44.4075 37.8433 45.7222 37.05C47.0595 36.2567 48.7369 35.86 50.7542 35.86C53.2249 35.86 55.2082 36.54 56.7042 37.9C58.2002 39.2373 58.9482 41.028 58.9482 43.272C58.9482 44.564 58.6989 45.7313 58.2002 46.774C57.7015 47.794 57.0555 48.7007 56.2622 49.494C55.4689 50.2647 54.2789 51.262 52.6922 52.486L48.8162 55.478H59.1862V60H41.5742Z" fill="#686868"/>
<path d="M50.5 -2.18557e-06C60.3891 -1.7533e-06 70.0561 2.93245 78.2785 8.42652C86.501 13.9206 92.9096 21.7295 96.694 30.8658C100.478 40.0021 101.469 50.0555 99.5393 59.7545C97.61 69.4536 92.848 78.3627 85.8553 85.3553C78.8627 92.348 69.9536 97.11 60.2545 99.0393C50.5555 100.969 40.5021 99.9784 31.3658 96.194C22.2295 92.4096 14.4206 86.001 8.92652 77.7785C3.43245 69.556 0.500002 59.8891 0.500002 50L6.49402 50C6.49402 58.7036 9.07492 67.2117 13.9104 74.4484C18.7458 81.6852 25.6186 87.3255 33.6596 90.6562C41.7007 93.9869 50.5488 94.8584 59.0851 93.1604C67.6215 91.4624 75.4626 87.2713 81.6169 81.1169C87.7713 74.9626 91.9624 67.1215 93.6604 58.5851C95.3584 50.0488 94.4869 41.2007 91.1562 33.1596C87.8255 25.1186 82.1852 18.2458 74.9484 13.4104C67.7117 8.57492 59.2036 5.99401 50.5 5.99401L50.5 -2.18557e-06Z" fill="url(#paint0_linear_270_4820)"/>
<defs>
<linearGradient id="paint0_linear_270_4820" x1="50.5" y1="1.50001" x2="3.5" y2="50" gradientUnits="userSpaceOnUse">
<stop offset="0.00437832" stop-color="#83C150"/>
<stop offset="0.486231" stop-color="#9CD365" stop-opacity="0.436578"/>
<stop offset="0.858227" stop-color="#9CD365" stop-opacity="0.120472"/>
<stop offset="1" stop-color="#9CD365" stop-opacity="0"/>
</linearGradient>
</defs>
</svg>

<svg width="101" height="100" fill="none" xmlns="http://www.w3.org/2000/svg"><circle cx="50.5" cy="50" r="44" fill="#fff"/><path d="M41.574 60v-4.148l7.922-6.494c1.564-1.292 2.64-2.323 3.23-3.094.59-.793.884-1.666.884-2.618 0-.975-.294-1.734-.884-2.278-.59-.544-1.36-.816-2.312-.816A4.17 4.17 0 0048 41.3c-.703.476-1.519 1.292-2.448 2.448L41.88 40.79c1.247-1.7 2.527-2.947 3.842-3.74 1.337-.793 3.015-1.19 5.032-1.19 2.47 0 4.454.68 5.95 2.04 1.496 1.337 2.244 3.128 2.244 5.372 0 1.292-.25 2.46-.748 3.502a10.078 10.078 0 01-1.938 2.72c-.793.77-1.983 1.768-3.57 2.992l-3.876 2.992h10.37V60H41.574z" fill="#686868"/><path d="M50.5 0a50 50 0 11-50 50h5.994A44.005 44.005 0 1050.5 5.994V0z" fill="url(#paint0_linear_270_4820)"/><defs><linearGradient id="paint0_linear_270_4820" x1="50.5" y1="1.5" x2="3.5" y2="50" gradientUnits="userSpaceOnUse"><stop offset=".004" stop-color="#83C150"/><stop offset=".486" stop-color="#9CD365" stop-opacity=".437"/><stop offset=".858" stop-color="#9CD365" stop-opacity=".12"/><stop offset="1" stop-color="#9CD365" stop-opacity="0"/></linearGradient></defs></svg>
